X:1
T:Ferrara, 76.76 D
T:Ferrara, 76.76 D
T:James Holmes Rosecrans, 1893
T:Public Domain Courtesy of the Cyber Hymnal™
C:James Holmes Rosecrans, 1893
Z:Public Domain
Z:Courtesy of the Cyber Hymnal™
%%score ( 1 2 ) ( 3 4 )
L:1/8
Q:1/4=110
M:4/4
K:Ab
V:1 treble 
V:2 treble 
V:3 bass 
V:4 bass 
V:1
 [CE]2 | [CE]3 [DF] [CE]2 [DF]2 | [CE]2 [Ec]4 [Ec]2 | [Fd]3 [FA] [FA]2 [FB]2 | [Ec]6 [Ec]2 | %5
 [EB]3 [Ec] [EB]2 [Ec]2 | [EB]2 [Ee]4 [Ec]2 | [=DB]3 [FA] [EG]2 [DF]2 | E6 E2 | %9
 [EB]3 [EA] [EG]2 [EG]2 | [EA]2 [CE]4 [CE]2 | [Ed]3 [Ec] [EB]2 [EB]2 | [Ec]6 [Ec]2 | %13
 [Af]3 [Ae] [Gd]2 [Ac]2 | [Fe]2 [Fd]4 [FB]2 | [EA]3 [Ac] [GB]2 [EG]2 | [EA]6 |] %17
V:2
 x2 | x8 | x8 | x8 | x8 | x8 | x8 | x8 | E6 E2 | x8 | x8 | x8 | x8 | x8 | x8 | x8 | x6 |] %17
V:3
 [A,,A,]2 | [A,,A,]3 [A,,A,] [A,,A,]2 [A,,A,]2 | [A,,A,]2 A,4 A,2 | %3
 [D,A,]3 [D,A,] [D,A,]2 [D,A,]2 | [A,,A,]6 [A,,A,]2 | [E,G,]3 [E,A,] [E,G,]2 [E,A,]2 | %6
 [E,G,]2 [E,G,]4 [A,,A,]2 | [B,,F,]3 [B,,B,] [B,,B,]2 [B,,A,]2 | [E,G,]6 [E,G,]2 | %9
 [E,D]3 [E,C] [E,B,]2 [E,B,]2 | [A,C]2 A,4 A,2 | [E,B,]3 [E,A,] [E,G,]2 [E,G,]2 | A,6 A,2 | %13
 [D,D]3 [C,A,] [B,,B,]2 [A,,E]2 | [D,D]2 [D,A,]4 [D,D]2 | [E,C]3 [E,E] [E,D]2 [E,B,]2 | [A,,C]6 |] %17
V:4
 x2 | x8 | x2 A,4 A,2 | x8 | x8 | x8 | x8 | x8 | x8 | x8 | x2 A,4 A,2 | x8 | A,6 A,2 | x8 | x8 | %15
 x8 | x6 |] %17

